packages/ffe-icons/icons/open/300/sm/border_all.svg

<svg xmlns="http://www.w3.org/2000/svg" height="20" viewBox="0 -960 960 960" width="20"><path d="M164.001-228.309v-503.382q0-26.527 18.891-45.417 18.89-18.891 45.417-18.891h503.382q26.527 0 45.417 18.891 18.891 18.89 18.891 45.417v503.382q0 26.527-18.891 45.417-18.89 18.891-45.417 18.891H228.309q-26.527 0-45.417-18.891-18.891-18.89-18.891-45.417Zm341.998-225.692V-216H744v-238.001H505.999Zm0-51.998H744V-744H505.999v238.001Zm-51.998 0V-744H216v238.001h238.001Zm0 51.998H216V-216h238.001v-238.001Z"/></svg>

<svg xmlns="http://www.w3.org/2000/svg" height="20" viewBox="0 -960 960 960" width="20"><path d="M164-228.31v-503.38q0-26.53 18.89-45.42T228.31-796h503.38q26.53 0 45.42 18.89T796-731.69v503.38q0 26.53-18.89 45.42T731.69-164H228.31q-26.53 0-45.42-18.89T164-228.31ZM506-454v238h238v-238H506Zm0-52h238v-238H506v238Zm-52 0v-238H216v238h238Zm0 52H216v238h238v-238Z"/></svg>
